svgs/thin/square-arrow-down.svg

<svg xmlns="http://www.w3.org/2000/svg" viewBox="0 0 448 512"><!-- Font Awesome Pro 6.0.0-alpha2 by @fontawesome - https://fontawesome.com License - https://fontawesome.com/license (Commercial License) --><path d="M218.344 381.656C221.469 384.781 226.531 384.781 229.656 381.656L349.656 261.656C351.219 260.094 352 258.062 352 256S351.219 251.906 349.656 250.344C346.531 247.219 341.469 247.219 338.344 250.344L232 356.688V136C232 131.594 228.422 128 224 128S216 131.594 216 136V356.688L109.656 250.344C106.531 247.219 101.469 247.219 98.344 250.344S95.219 258.531 98.344 261.656L218.344 381.656ZM64 480H384C419.348 480 448 451.348 448 416V96C448 60.654 419.348 32 384 32H64C28.652 32 0 60.654 0 96V416C0 451.348 28.652 480 64 480ZM16 96C16 69.533 37.531 48 64 48H384C410.469 48 432 69.533 432 96V416C432 442.467 410.469 464 384 464H64C37.531 464 16 442.467 16 416V96Z"/></svg>

<svg xmlns="http://www.w3.org/2000/svg" viewBox="0 0 448 512"><!--! Font Awesome Pro 6.4.0 by @fontawesome - https://fontawesome.com License - https://fontawesome.com/license (Commercial License) Copyright 2023 Fonticons, Inc. --><path d="M64 464c-26.5 0-48-21.5-48-48V96c0-26.5 21.5-48 48-48H384c26.5 0 48 21.5 48 48V416c0 26.5-21.5 48-48 48H64zM0 416c0 35.3 28.7 64 64 64H384c35.3 0 64-28.7 64-64V96c0-35.3-28.7-64-64-64H64C28.7 32 0 60.7 0 96V416zm229.7-34.3l104-104c3.1-3.1 3.1-8.2 0-11.3s-8.2-3.1-11.3 0L232 356.7V136c0-4.4-3.6-8-8-8s-8 3.6-8 8V356.7l-90.3-90.3c-3.1-3.1-8.2-3.1-11.3 0s-3.1 8.2 0 11.3l104 104c3.1 3.1 8.2 3.1 11.3 0z"/></svg>
